!!!ONB: MCCC : IEG0033_01 : Extracted Monophonic Melody
!!!COM: Grieg, Edvard
!!!OPR: Fra Holbergs tid, Suite i gammel stil
!!!OMV: 1
!!!SCT: Op.40
!!!ODT: 1884///
**kern
*staff1
=1
*clefG2
*k[f#c#]
*D:
*M4/4
16G
16B
16G
16D
16G
16B
16G
16D
16G
16B
16G
16D
16G
16c
16G
16E
=2
16A
16d
16A
16F#
16B
16e
16B
16G
16c
16f#
16c
16A
16d
16g
16d
16B
=3
16e
16a
16e
16c
16e
16a
16e
16c
16f#
16b
16f#
16d
16f#
16b
16f#
16d
=4
16d
16g
16d
16B
16d
16g
16d
16B
16d
16g
16d
16B
16e
16a
16e
16c#
=5
16f#
16a
16f#
16d
16f#
16a
16f#
16d
16g
16cc#
16g
16e
16g
16cc#
16g
16e
=6
16a
16dd
16a
16d
16a
16dd
16a
16d
16a
16dd
16a
16d
16g
16dd
16g
16d
=7
16a
16dd
16a
16e
16a
16dd
16a
16e
16a
16cc#
16a
16e
16a
16cc#
16a
16e
=8
16a
16dd
16a
16f#
16a
16dd
16a
16f#
16a
16dd
16a
16f#
16a
16dd
16a
16f#
=9
16g
16dd
16g
16f#
16g
16dd
16g
16f#
16g
16dd
16g
16f#
16g
16dd
16g
16f#
=10
16g
16dd
16g
16e
16g
16dd
16g
16e
16g
16cc#
16g
16e
16g
16cc#
16g
16e
=11
16f#
16cc#
16f#
16e
16f#
16cc#
16f#
16e
16f#
16cc#
16f#
16e
16f#
16cc#
16f#
16e
=12
16f#
16cc#
16f#
16d
16f#
16cc#
16f#
16d
16f#
16cc#
16f#
16d
16f#
16cc#
16f#
16d
=13
16e
16b
16e
16d
16e
16b
16e
16d
16e
16a
16e
16c#
16e
16a
16e
16c#
=14
16d
16a
16d
16c#
16d
16a
16d
16c#
16d
16g
16d
16B
16d
16g
16d
16B
=15
16c#
16g
16c#
16B
16c#
16g
16c#
16B
16c#
16g
16c#
16B
16c#
16g
16c#
16B
=16
16c#
16f#
16c#
16A
16c#
16f#
16c#
16A
16c#
16e
16c#
16G
16c#
16e
16c#
16G
=17
16A
16d
16A
16F#
16A
16d
16A
16F#
16d
16f#
16d
16A
16f#
16a
16f#
16d
=18
*M5/4
16a
16dd
16a
16f#
16dd
16ff#
16dd
16a
16ff#
16aa
16ff#
16dd
4ddd
4r
=19
*M4/4
16G
16B
16G
16D
16G
16B
16G
16D
16G
16B
16G
16D
16G
16c
16G
16E
=20
16A
16d
16A
16F#
16B
16e
16B
16G
16c
16f#
16c
16A
16d
16g
16d
16B
=21
16e
16a
16e
16c
16e
16a
16e
16c
16f#
16b
16f#
16d
16f#
16b
16f#
16d
=22
16d
16g
16d
16B
16d
16g
16d
16B
16d
16g
16d
16B
16e
16a
16e
16c#
=23
16f#
16a
16f#
16d
16f#
16a
16f#
16d
16g
16cc#
16g
16e
16g
16cc#
16g
16e
=24
16a
16dd
16a
16d
16a
16dd
16a
16d
16a
16dd
16a
16d
16g
16dd
16g
16d
=25
16a
16dd
16a
16e
16a
16dd
16a
16e
16a
16cc#
16a
16e
16a
16cc#
16a
16e
=26
16a
16dd
16a
16f#
16a
16dd
16a
16f#
16a
16dd
16a
16f#
16a
16dd
16a
16f#
=27
16g
16dd
16g
16f#
16g
16dd
16g
16f#
16g
16dd
16g
16f#
16g
16dd
16g
16f#
=28
16g
16dd
16g
16e
16g
16dd
16g
16e
16g
16cc#
16g
16e
16g
16cc#
16g
16e
=29
16f#
16cc#
16f#
16e
16f#
16cc#
16f#
16e
16f#
16cc#
16f#
16e
16f#
16cc#
16f#
16e
=30
16f#
16cc#
16f#
16d
16f#
16cc#
16f#
16d
16f#
16cc#
16f#
16d
16f#
16cc#
16f#
16d
=31
16e
16b
16e
16d
16e
16b
16e
16d
16e
16a
16e
16c#
16e
16a
16e
16c#
=32
16d
16a
16d
16c#
16d
16a
16d
16c#
16d
16g
16d
16B
16d
16g
16d
16B
=33
16c#
16g
16c#
16B
16c#
16g
16c#
16B
16c#
16g
16c#
16B
16c#
16g
16c#
16B
=34
16c#
16f#
16c#
16A
16c#
16f#
16c#
16A
16c#
16e
16c#
16G
16c#
16e
16c#
16G
=35
16A
16d
16A
16F#
16A
16d
16A
16F#
16d
16f#
16d
16A
16f#
16a
16f#
16d
=36
*M5/4
16a
16dd
16a
16f#
16dd
16ff#
16dd
16a
16ff#
16aa
16ff#
16dd
4ddd
4r
=37
*M4/4
4d
4ccc[
8ccc]
8aa
8ff#
8dd
=38
8cc
8a
8f#
8d
8c
8A
8F#
8D
=39
4A
4r
2r
=40
1r
=41
4B
4aa[
8aa]
8ff#
8dd#
8b
=42
8a
8f#
8d#
8B
8A
8F#
8D#
8BB
=43
4r
8r
8cc
8r
8b
8r
8B
=44
4r
8r
8b
8r
8a
4r
=45
4r
8r
16ff
16f
8r
16ff
16f
8r
16f
16F
=46
4r
8r
16ee
16e
8r
16ee
16e
4r
=47
8e
4ee
8a#
8e
8A#
8E
8e
=48
*M9/8
4.d#
16ff#
16b
16bb
16dd#
16ff#
16b
16bb
16dd#
16ff#
16b
16bb
16dd#
=49
*M4/4
16gg
16b
16ccc
16ee
16gg
16b
16ccc
16ee
16ee
16b
16aa
16cc
16ee
16b
16aa
16cc
=50
16ff#
16b
16bb
16dd
16ff#
16b
16bb
16dd
16dd
16b
16gg
16b
16dd
16b
16gg
16b
=51
16ee
16b
16aa
16b
16ee
16b
16aa
16b
16cc#
16b
16gg
16a#
16cc#
16b
16gg
16a#
=52
16dd#
16b
16ff#
16b
16dd#
16b
16ff#
16b
16dd#
16b
16ff#
16b
16b
16B
16f#
16dd#
=53
16cc
16B
16g
16ee
16cc
16B
16g
16ee
16a
16B
16e
16cc
16a
16B
16e
16cc
=54
16b
16B
16f#
16dd
16b
16B
16f#
16dd
16g
16B
16d
16b
16g
16B
16d
16b
=55
16a
16B
16e
16cc
16a
16B
16e
16cc
16g
16B
16c#
16a#
16g
16B
16c#
16a#
=56
16f#
16B
16d#
16b
16f#
16B
16d#
16b
16f#
16B
16d#
16b
16f#
16B
16d#
16b
=57
16f#
16B
16d
16b
16f#
16B
16d
16b
16f#
16B
16d
16b
16f#
16B
16d
16b
=58
4r
16cc
16g
16cc
16gg
16gg
16cc
16gg
16ccc
16ccc
16gg
16ccc
16ggg
=59
16fff#
32eee
32ddd[
16ddd]
32bb
32aa
32gg
32ff#
32ee
32dd
32cc
32b
32a
32g
32f#
32e
32d
32c
32B
32A
32G
32F#[
16F#]
16D
32C
32BB
16AA
=60
4r
2gg
8dd
8b
=61
8.a
16g
4g
4g
4g
=62
2e
24f#
24g
24f#
24g
24f#
24g
24f#
24g
24f#
16e
16f#
=63
2.g
16g
16b
16g
16d
=64
16g
16cc
16g
16c
16g
16cc
16g
16c
16b
16ff
16b
16f
16b
16ff
16b
16f
=65
16cc
16ee
16cc
16g
16cc
16ee
16cc
16g
16cc
16ee
16cc
16g
16dd
16ff#
16dd
16a
=66
16dd
16gg
16dd
16g
16dd
16gg
16dd
16g
16ff#
16ccc
16ff#
16cc
16ff#
16ccc
16ff#
16cc
=67
16ff#
16bb
16ff#
16b
16ff#
16bb
16ff#
16b
16ee
16bb
16ee
16b
16ee
16bb
16ee
16b
=68
16ee
16aa
16ee
16a
16ee
16aa
16ee
16a
16dd
16aa
16dd
16a
16dd
16aa
16dd
16a
=69
16dd
16gg
16dd
16g
16dd
16gg
16dd
16g
16cc
16ff#
16cc
16f#
16b
16ff#
16b
16f#
=70
16b
16ee
16b
16e
16a
16ee
16a
16e
16a
16dd
16a
16d
16g
16dd
16g
16d
=71
16g
16cc
16g
16c
16f#
16cc
16f#
16c
16g
16b
16g
16d
16g
16b
16g
16e
=72
16g
16a
16g
16A
16g
16a
16g
16B
16g
16a
16g
16c
16f#
16a
16f#
16c
=73
16d
16g
16d
16B
16d
16g
16d
16B
16d
16g
16d
16B
16d
16g
16d
16B
=74
16c
16g
16c
16B
16c
16g
16c
16B
16c
16g
16c
16B
16c
16g
16c
16B
=75
16c
16g
16c
16A
16c
16g
16c
16A
16c
16f#
16c
16A
16c
16f#
16c
16A
=76
16B
16f#
16B
16A
16B
16f#
16B
16A
16B
16f#
16B
16A
16B
16f#
16B
16A
=77
16B
16f#
16B
16G
16B
16f#
16B
16G
16B
16f#
16B
16G
16B
16f#
16B
16G
=78
16A
16e
16A
16G
16A
16e
16A
16G
16A
16d
16A
16F#
16A
16d
16A
16F#
=79
16G
16d
16G
16F#
16G
16d
16G
16F#
16G
16c
16G
16E
16G
16c
16G
16E
=80
16F#
16c
16F#
16E
16F#
16c
16F#
16E
16F#
16c
16F#
16E
16F#
16c
16F#
16E
=81
16F#
16B
16F#
16D
16F#
16B
16F#
16D
16F#
16A
16F#
16C
16F#
16A
16F#
16C
=82
16D
16G
16D
16BB
16D
16G
16D
16BB
16G
16B
16G
16D
16B
16d
16B
16G
=83
16d
16g
16d
16B
16g
16b
16g
16d
16b
16dd
16b
16g
4gg
=84
4r
16D
16G
16D
16BB
16G
16B
16G
16D
16B
16d
16B
16G
=85
16d
16g
16d
16B
16g
16b
16g
16d
16b
16dd
16b
16g
4gg
=86
4r
4g
4f#
4e
=87
4d
4a
4g
4f
=88
4e
4ee
4dd
4gg
=89
4.g
24e
24f#
24g
32a
32b
32a
32b
32a
32b
32a
32b
32a
32b
32a
32b
32a
32b
32a
32b
=90
32a
32b
32a
32b[
16b]
16g
2.g[
=91
4g]
4r
2r
==
*-
